X: 1
T:Mazurka
M:3/4
L:1/8
Q:180
R:Fast Waltz  Arranged by John Layton   25/02/01
K:G
:DG|B2 BA GB|d2 d2 ed|c2 ce dc|B2 B2 DG|B2 BA GB|d2 d2 ed|cB cA FA|G4::B
d|g2 g2 fe|d2 d2 ed|c2 ce dc|B2 B2 Bd|g2 g2 fe|d2 d2 ed|cB cA FA|G4:|
